svg/fluentui-system-icons/ic_fluent_read_aloud_24_regular.svg

<svg width="24" height="24" viewBox="0 0 24 24" fill="none" xmlns="http://www.w3.org/2000/svg">
<path d="M15.8614 2.09197C15.4979 1.89336 15.0422 2.02705 14.8436 2.39058C14.645 2.7541 14.7787 3.2098 15.1422 3.40841C16.9956 4.42106 18.3577 5.69397 19.2441 7.22942C20.1305 8.76488 20.5518 10.581 20.502 12.6925C20.4923 13.1066 20.82 13.4503 21.2341 13.46C21.6482 13.4698 21.9918 13.142 22.0016 12.7279C22.0576 10.3516 21.5734 8.26391 20.5431 6.47937C19.5129 4.69483 17.9471 3.2316 15.8614 2.09197ZM15.6238 5.69287C15.2602 5.49456 14.8046 5.62863 14.6063 5.99232C14.408 6.35601 14.5421 6.8116 14.9057 7.00991C15.6273 7.40337 16.2028 7.97328 16.6411 8.73239C17.0793 9.49151 17.2851 10.2749 17.265 11.0966C17.2549 11.5107 17.5824 11.8546 17.9965 11.8647C18.4106 11.8748 18.7545 11.5473 18.7646 11.1332C18.7914 10.032 18.5144 8.97709 17.9401 7.98234C17.3658 6.9876 16.5908 6.22018 15.6238 5.69287ZM9.0002 3.99868C9.30769 3.99868 9.58403 4.18638 9.69738 4.47224L15.4474 18.9733C15.6001 19.3583 15.4117 19.7943 15.0267 19.947C14.6416 20.0997 14.2057 19.9113 14.053 19.5262L12.258 14.9994H5.74236L3.94738 19.5262C3.79469 19.9113 3.35877 20.0997 2.97373 19.947C2.58869 19.7943 2.40033 19.3583 2.55302 18.9733L8.30302 4.47224C8.41637 4.18638 8.69271 3.99868 9.0002 3.99868ZM9.0002 6.78346L6.33719 13.4993H11.6632L9.0002 6.78346Z" fill="#212121"/>
</svg>

<svg xmlns="http://www.w3.org/2000/svg" width="24" height="24"><path d="M15.861 2.092a.75.75 0 1 0-.719 1.316c1.854 1.013 3.216 2.286 4.102 3.821.887 1.536 1.308 3.352 1.258 5.464a.75.75 0 0 0 1.5.035c.056-2.376-.429-4.464-1.459-6.249-1.03-1.784-2.596-3.247-4.682-4.387Zm-.237 3.6a.75.75 0 1 0-.718 1.318c.721.393 1.297.963 1.735 1.722.438.76.644 1.543.624 2.365a.75.75 0 0 0 1.5.036c.026-1.101-.25-2.156-.825-3.15-.574-.995-1.35-1.763-2.316-2.29ZM9 4a.75.75 0 0 1 .697.473l5.75 14.501a.75.75 0 0 1-1.394.553L12.258 15H5.742l-1.795 4.527a.75.75 0 1 1-1.394-.553l5.75-14.5A.75.75 0 0 1 9 3.998Zm0 2.784L6.337 13.5h5.326L9 6.783Z"/></svg>
